app/dist/common/images/inhibrx.svg

<svg height="18" viewBox="0 0 18 18" width="18" xmlns="http://www.w3.org/2000/svg"><path d="m0 0h18v18h-18z" fill="#f0f3fa"/><path d="m11.4 7.32h2.1l-2.47 3.04 1.66 3.64h-2.3l-.75-2.02-1.41 2.02h-2.17l2.79-3.64-1.1-2.15-.61-1.21h.83c.43 0 .86-.29.95-.82.1-.58-.37-.75-.83-.75h-.89l-.06.36h-1.9l.29-1.79h3.64c1.09 0 1.9.64 1.7 1.85-.1.65-.58 1.64-1.24 1.91l.55 1.33.9-1.31.31-.46zm-6.9 2.68.67-3.86h1.9l-.1.6-.23 1.41-.34 1.85z" fill="#767561"/></svg>

<!-- by TradingView --><svg xmlns="http://www.w3.org/2000/svg" width="18" height="18" viewBox="0 0 18 18"><path fill="#F0F3FA" d="M0 0h18v18H0z"/><path d="M11.4 7.32h2.1l-2.47 3.04L12.69 14h-2.3l-.75-2.02L8.23 14H6.06l2.79-3.64-1.1-2.15L7.14 7h.83c.43 0 .86-.29.95-.82.1-.58-.37-.75-.83-.75H7.2l-.06.36h-1.9L5.53 4h3.64c1.09 0 1.9.64 1.7 1.85-.1.65-.58 1.64-1.24 1.91l.55 1.33.9-1.31.31-.46ZM4.5 10l.67-3.86h1.9l-.1.6-.23 1.41L6.4 10H4.5Z" fill="#767561"/></svg>
